X:1
T:August Söderman (1832-1876)
T:Allegretto.
T:Lovsång
T:(Dav. PS. 117)
%%score [ 1 2 3 4 ]
L:1/8
Q:1/4=80
M:4/4
K:Ab
V:1 treble nm="S"
V:2 treble nm="A"
V:3 treble-8 nm="T"
V:4 bass nm="B"
V:1
!f! A4 EA Bc |!p! B2 A2 z2 A2 |!<(! !fermata!A4-!<)!!>(! A z!>)! E>E |!<(! c4- c2!<)! B2 | %4
w: Lo- ven och pri- sen|Her- ran, allt|folk! * Ty hans|nåd * är|
 (B2!>(! A4) G2!>)! | G>F F2 z2!<(! F>F!<)! | (d4 c2) B2 |"^molto cresc." A4 G2 A2 | %8
w: väl- * dig|ö- ver oss och hans|san- * ning|va- rar i|
 =A>B B2 z2 c2 |!ff!!p! e>d d4 B=B |!<(! (c4- c!<)!d) (cG) | (B2 A4) G2 | %12
w: e- vig- het, i|e- vig- het; ja, hans|nåd * * är *|väl- * dig|
!>(! G>F!>)! F2 z2!<(! F>F!<)! |!f! d3 d c2 B>B | A>A A2 z A AA |!>(! A2 BA G3!>)! A | %16
w: ö- ver oss och hans|san- ning va- rar i|e- vig- het, hans san- ning|va- rar i e- vig-|
!p! A4- A2 z2 |!f! A4 EA Bc |!p! B2 A2 z2 A2 |!<(!!>(! A8!<)!!>)! |] %20
w: het, *|Lo- ven och pri- sen|Her- ran, allt|folk!|
V:2
!f! A4 EA Bc |!p! B2 A2 z2 F2 | !fermata!E4- E z E>E | (E4 =E2) E2 | (=E2 F4) E2 | %5
w: Lo- ven och pr- sen|Her- ran, allt|folk! * Ty hans|nåd * är|väl- * dig|
 =E>F F2 z2 _E>E | (D4 E2) (FD) | D4 D2 D2 | D>D D2 z2 E2 |!ff!!p! ^F>G G4 G=F | (E4 =E2) E2 | %11
w: ö- ver oss och hans|san- * ning *|va- rar i|e- vig- het i|e- vig- het ja hans|nåd * är|
 (G2 F4) =E2 | =E>F F2 z2 _E>E |!f! D3 D E2 F>F | E>E F2 z E FE | F2 GF E3 E |!p! E4- E2 z2 | %17
w: väl- * dig|ö- ver oss och hans|san- ning va- rar i|e- vig- het, hans san- ning|va- rar i e- vig-|het, *|
!f! A4 EA Bc |!p! B2 A2 z2 F2 | E8 |] %20
w: Lo- ven och pri- sen|Her- ran, allt|folk!|
V:3
!f! A4 EA Bc |!p! B2 A2 z2 [Ad]2 | !fermata![Ac]4- [Ac] z e>e | c4- c2 c2 | c2- c4 B2 | %5
w: Lo- ven och pri- sen|Her- ran, allt|folk! * Ty hans|nåd * är|väl- * dig|
 B>A A2 z2 =A>A | (B4 =A2) (Bd) | c4 B2 A2 | ^F>G G2 z2 A2 |!ff!!p! =A>B B4 dd | c4- c2 c2 | %11
w: ö- ver oss och hans|san- * ning *|va- rar i|e- vig- het i|e- vig- het ja hans|nåd * är|
 (d2 c4) B2 | B>A A2 z2 =A>A |!f! B3 B =A2 B>B | c>c d2 z c dc | [Bd]2 [Bd][Bd] [Bd]3 c | %16
w: väl- * dig|ö- ver oss och hans|san- ning va- rar i|e- vig- het, hans san- ning|va- rar i e- vig-|
!p! c4- c2 z2 |!f! A4 EA Bc |!p! B2 A2 z2 [Ad]2 | [Ac]8 |] %20
w: het, *|Lo- ven och pri- sen|Her- ran, allt|folk!|
V:4
!f! A,4 E,A, B,C |!p! B,2 A,2 z2 D,2 | !fermata![A,,E,]4- [A,,E,] z E,>E, | (A,4 G,2) G,2 | %4
w: Lo- ven och pri- sen|Her- ran, allt|folk! * Ty hans|nåd * är|
 (G,2 F,4) C,2 | C,>D, D,2 z2 C,>C, | (B,,4 C,2) D,2 | E,4 E,2 E,2 | E,>E, E,2 z2 E,2 | %9
w: väl- * dig|ö- ver oss och hans|san- * ning|va- rar i|e- vig- het i|
!ff!!p! E,>E, E,4 E,E, | (A,4 G,2) G,2 | (F,2 F,4) C,2 | D,>D, D,2 z2 C,>C, | %13
w: e- vig- het, ja hans|nåd * är|väl- * dig|ö- ver oss och hans|
!f! B,,3 B,, C,2 D,>D, | E,>E, E,2 z E, E,E, | E,2 E,E, E,3 A, |!p! A,4- A,2 z2 |!f! A,4 E,A, B,C | %18
w: san- ning va- rar i|e- vig- het, hans san- ning|va- rar i e- vig-|het, *|Lo- ven och pri- sen|
!p! B,2 A,2 z2 D,2 | [A,,E,]8 |] %20
w: Her- ran, allt|folk!|

